SVG Logos/APIs/graphql-tools.svg

<?xml version="1.0" encoding="UTF-8"?>
<svg width="215px" height="105px" viewBox="0 0 215 105" version="1.1" xmlns="http://www.w3.org/2000/svg" xmlns:xlink="http://www.w3.org/1999/xlink">
    <title>GraphQL Tools/ toolkit</title>
    <g id="GraphQL-Tools/-toolkit" stroke="none" stroke-width="1" fill="none" fill-rule="evenodd">
        <rect id="Rectangle" fill="#FFFFFF" x="0" y="0" width="215" height="105"></rect>
        <g id="Libraries-Logos-/-Toolskit" transform="translate(6.000000, 20.000000)" fill="#184AE8">
            <path d="M36.0400049,60.3145407 C36.0400049,60.5683309 36.0151531,60.8160963 35.9767457,61.0593432 C35.9722272,61.0902198 35.9684617,61.1203432 35.9631901,61.1504667 C35.5655605,63.4345778 33.5736469,65.1772198 31.178079,65.1772198 C29.0415728,65.1772198 27.2273877,63.7900346 26.5759679,61.8711704 L6.34580741,50.1923062 C4.33958519,49.0340593 3.10452346,46.8930346 3.10452346,44.5780469 L3.10452346,24.9066765 C3.85384444,25.1604667 4.65286914,25.3043062 5.48804198,25.3043062 C6.23736296,25.3043062 6.96032593,25.1905901 7.64262222,24.9842444 L7.64262222,44.5780469 C7.64262222,45.2701333 8.01464691,45.9147753 8.61560988,46.2611951 L27.4872025,57.1568494 C28.3796099,56.1153309 29.7012765,55.4518617 31.178079,55.4518617 C32.7844123,55.4518617 34.2062395,56.2373309 35.0926222,57.441516 C35.108437,57.4633556 35.1250049,57.484442 35.1408198,57.5062815 C35.2025728,57.5943926 35.2613136,57.6840099 35.3177951,57.7766395 C35.3396346,57.8120346 35.3614741,57.8466765 35.3825605,57.8828247 C35.4322642,57.9679235 35.4782025,58.0552815 35.5226346,58.1433926 C35.5467333,58.190837 35.5693259,58.2382815 35.5911654,58.286479 C35.6295728,58.3685654 35.6649679,58.4514049 35.6988568,58.5357506 C35.7229556,58.5959975 35.744042,58.6562444 35.7658815,58.7172444 C35.7929926,58.7940593 35.8193506,58.8716272 35.8419432,58.9499481 C35.8645358,59.0252568 35.8811037,59.1005654 35.8999309,59.175121 C35.9172519,59.2459111 35.9353259,59.3159481 35.9488815,59.3874914 C35.9677086,59.4816272 35.979758,59.576516 35.9933136,59.672158 C36.0000914,59.7301457 36.0113877,59.785121 36.0166593,59.8423556 C36.0309679,59.9982444 36.0400049,60.1548864 36.0400049,60.3145407 L36.0400049,60.3145407 Z M60.919721,17.8487506 C60.919721,19.307479 60.2720667,20.614837 59.2508815,21.5064914 L59.2508815,44.5780469 C59.2508815,46.8930346 58.0165728,49.0340593 56.0095975,50.1923062 L38.629116,60.2264296 C38.6095358,58.5847012 38.0545111,57.0732568 37.1342395,55.8487383 L53.7405481,46.2611951 C54.340758,45.9147753 54.7127827,45.2701333 54.7127827,44.5780469 L54.7127827,22.5178864 C52.684721,21.9334914 51.195116,20.0635778 51.195116,17.8487506 C51.195116,16.7703309 51.5528321,15.7762568 52.1492765,14.9697012 C52.1575605,14.9568988 52.1673506,14.9440963 52.1771407,14.9312938 C52.2893506,14.7821827 52.4098444,14.6383432 52.5386222,14.5027877 L52.5559432,14.4839605 C52.8225358,14.2060716 53.120758,13.9620716 53.4460914,13.7534667 C53.4799802,13.7316272 53.5153753,13.7120469 53.5500173,13.6902074 C53.6787951,13.6133926 53.8105852,13.5403432 53.9461407,13.4748247 C53.9860543,13.4559975 54.0259679,13.4356642 54.0666346,13.4175901 C54.236079,13.3407753 54.4107951,13.2699852 54.5907827,13.2142568 C54.5915358,13.2142568 54.5915358,13.2142568 54.5915358,13.2135037 C55.054684,13.0666519 55.5464494,12.9860716 56.0577951,12.9860716 C58.7395358,12.9860716 60.919721,15.1670099 60.919721,17.8487506 L60.919721,17.8487506 Z M3.10452346,22.0826025 C1.6269679,21.2474296 0.625362963,19.6636889 0.625362963,17.8487506 C0.625362963,15.1670099 2.80630123,12.9860716 5.48804198,12.9860716 C6.18314074,12.9860716 6.84284444,13.1359358 7.44154815,13.399516 L27.936042,1.56702222 C28.9384,0.987898765 30.0589926,0.69871358 31.1773259,0.69871358 C32.2971654,0.69871358 33.4170049,0.987898765 34.419363,1.56702222 L51.9022642,11.6613926 C50.6159926,12.5289481 49.6196593,13.7896148 49.0729185,15.2664173 L32.1503136,5.49738025 C31.8551037,5.32642963 31.5184741,5.23681235 31.1773259,5.23681235 C30.8369309,5.23681235 30.5010543,5.32642963 30.2050914,5.49738025 L10.2724,17.0060469 C10.3205975,17.2801704 10.3499679,17.5603185 10.3499679,17.8487506 C10.3499679,19.9408247 9.0192642,21.7233802 7.16215309,22.4079358 C7.14784444,22.4132074 7.13278272,22.4192321 7.11922716,22.4237506 C6.97086914,22.4757136 6.82251111,22.5216519 6.66963457,22.5600593 C6.63875802,22.5675901 6.60863457,22.5766272 6.57775802,22.5826519 C6.43768395,22.6150346 6.29459753,22.6406395 6.15075802,22.6609728 C6.11159753,22.6662444 6.07319012,22.6737753 6.03327654,22.6782938 C5.85404198,22.6986272 5.67254815,22.7114296 5.48804198,22.7114296 C5.28998025,22.7114296 5.09493086,22.6956148 4.90214074,22.6722691 C4.85093086,22.6662444 4.80047407,22.6572074 4.74851111,22.6489235 C4.60090617,22.6263309 4.45631358,22.5977136 4.31247407,22.5615654 C4.26879506,22.5502691 4.22436296,22.540479 4.17993086,22.5276765 C3.8011284,22.4207383 3.4404,22.2723802 3.10452346,22.0826025 L3.10452346,22.0826025 Z" id="Fill-2"></path>
            <path d="M41.4995439,15.07066 L41.4694027,16.9796012 C41.4650969,17.1992012 41.3179792,21.9162953 35.7239204,26.8429424 L35.7239204,26.8429424 L42.5243439,26.8429424 C45.9188145,26.8429424 48.6803204,29.6044482 48.6803204,32.9989188 C48.6803204,36.3933894 45.9188145,39.1548953 42.5243439,39.1548953 L42.5243439,39.1548953 L42.204991,39.1548953 L40.4302498,40.9325071 C40.214238,41.1492365 39.9250263,41.2626247 39.6092616,41.2468365 L39.6092616,41.2468365 L37.432638,41.1269894 L35.897591,42.6677776 C35.6808616,42.8845071 35.395238,42.9986129 35.0744498,42.9821071 L35.0744498,42.9821071 L32.9042851,42.8615424 L31.369238,44.4016129 C31.151791,44.61906 30.8546851,44.7317306 30.5460969,44.71666 L30.5460969,44.71666 L28.3780851,44.5939424 L26.843038,46.1340129 C26.6406616,46.3371071 26.3658027,46.4504953 26.0808969,46.4504953 C26.0615204,46.4504953 26.0407086,46.4497776 26.0206145,46.44906 L26.0206145,46.44906 L23.368191,46.3005071 C22.7739792,46.2674953 22.3204263,45.7594012 22.353438,45.1659071 C22.3864498,44.5716953 22.8823439,44.1274718 23.4887557,44.1511541 L23.4887557,44.1511541 L25.6589204,44.2724365 L27.1939675,42.7323659 C27.4099792,42.5142012 27.7149792,42.4022482 28.0171086,42.4173188 L28.0171086,42.4173188 L30.1851204,42.5393188 L31.7194498,40.9999659 C31.9361792,40.7825188 32.2268263,40.6691306 32.542591,40.6849188 L32.542591,40.6849188 L34.7127557,40.8062012 L36.2485204,39.2654129 C36.2901439,39.2237894 36.336791,39.1886247 36.383438,39.1548953 L36.383438,39.1548953 L19.3120498,39.1548953 C15.9182969,39.1548953 13.156791,36.3933894 13.156791,32.9989188 C13.156791,29.6044482 15.9182969,26.8429424 19.3120498,26.8429424 L19.3120498,26.8429424 L21.3465792,26.8429424 L21.3422733,26.8357659 L41.4995439,15.07066 Z M42.5243439,28.9958835 L19.3120498,28.9958835 C17.1052851,28.9958835 15.3097322,30.7914365 15.3097322,32.9989188 C15.3097322,35.2064012 17.1052851,37.0019541 19.3120498,37.0019541 L19.3120498,37.0019541 L42.5243439,37.0019541 C44.7318263,37.0019541 46.5273792,35.2064012 46.5273792,32.9989188 C46.5273792,30.7914365 44.7318263,28.9958835 42.5243439,28.9958835 L42.5243439,28.9958835 Z M42.8789333,30.5431306 L42.8789333,32.0379894 L44.3745098,32.0379894 L44.3745098,34.1909306 L42.8789333,34.1909306 L42.8789333,35.6865071 L40.7259922,35.6865071 L40.7259922,34.1909306 L39.2311333,34.1909306 L39.2311333,32.0379894 L40.7259922,32.0379894 L40.7259922,30.5431306 L42.8789333,30.5431306 Z M38.7854027,19.1476129 L25.600791,26.8429424 L32.4399675,26.8429424 L32.3760969,26.7546718 C36.3690851,23.9013071 38.0648851,21.0400482 38.7854027,19.1476129 L38.7854027,19.1476129 Z" id="Combined-Shape"></path>
        </g>
        <path d="M78.565,38.821 L80.644,38.821 L80.644,39.063 C80.237,39.657 79.577,40.042 78.807,40.042 C77.509,40.042 76.475,39.008 76.475,37.71 C76.475,36.412 77.509,35.378 78.807,35.378 C79.555,35.378 80.215,35.719 80.644,36.258 L82.437,35.048 C81.612,33.97 80.281,33.255 78.807,33.255 C76.321,33.255 74.253,35.257 74.253,37.71 C74.253,40.163 76.321,42.165 78.807,42.165 C79.687,42.165 80.556,41.835 80.974,41.197 L80.974,42 L82.701,42 L82.701,36.995 L78.565,36.995 L78.565,38.821 Z M86.3105714,33.42 L86.3105714,42 L88.4995714,42 L88.4995714,39.701 L89.6215714,39.701 L91.2495714,42 L93.8785714,42 L92.0195714,39.404 C93.1745714,38.876 93.7135714,37.754 93.7135714,36.555 C93.7135714,34.85 92.7015714,33.42 90.5015714,33.42 L86.3105714,33.42 Z M90.3805714,35.422 C91.2605714,35.422 91.5905714,35.917 91.5905714,36.577 C91.5905714,37.171 91.2605714,37.71 90.3805714,37.71 L88.4995714,37.71 L88.4995714,35.422 L90.3805714,35.422 Z M99.8861429,33.42 L96.4101429,42 L98.8081429,42 L99.2811429,40.746 L102.658143,40.746 L103.131143,42 L105.529143,42 L102.064143,33.42 L99.8861429,33.42 Z M101.910143,38.755 L100.029143,38.755 L100.975143,36.236 L101.910143,38.755 Z M108.687714,42 L110.887714,42 L110.887714,40.053 L112.471714,40.053 C114.748714,40.053 115.837714,38.524 115.837714,36.709 C115.837714,34.982 114.748714,33.42 112.471714,33.42 L108.687714,33.42 L108.687714,42 Z M112.350714,35.422 C113.274714,35.422 113.615714,36.038 113.615714,36.72 C113.615714,37.479 113.274714,38.051 112.350714,38.051 L110.887714,38.051 L110.887714,35.422 L112.350714,35.422 Z M124.870286,33.42 L124.870286,36.753 L121.372286,36.753 L121.372286,33.42 L119.183286,33.42 L119.183286,42 L121.372286,42 L121.372286,38.81 L124.870286,38.81 L124.870286,42 L127.070286,42 L127.070286,33.42 L124.870286,33.42 Z M130.481857,37.71 C130.481857,39.91 132.153857,41.758 134.287857,42.099 C135.772857,42.594 136.773857,44.134 138.500857,44.134 C139.281857,44.134 140.282857,43.815 140.898857,42.968 L139.237857,41.626 C139.006857,41.978 138.610857,42.011 138.489857,42.011 C138.115857,42.011 137.763857,41.813 137.367857,41.538 C138.698857,40.757 139.589857,39.338 139.589857,37.71 C139.589857,35.257 137.543857,33.255 135.035857,33.255 C132.560857,33.255 130.481857,35.257 130.481857,37.71 Z M132.703857,37.71 C132.703857,36.412 133.748857,35.378 135.035857,35.378 C136.355857,35.378 137.367857,36.412 137.367857,37.71 C137.367857,39.008 136.355857,40.042 135.035857,40.042 C133.748857,40.042 132.703857,39.008 132.703857,37.71 Z M143.012429,42 L143.012429,33.42 L145.201429,33.42 L145.201429,39.877 L149.315429,39.877 L149.315429,42 L143.012429,42 Z" id="GraphQL" fill="#6D7A99" fill-rule="nonzero"></path>
        <path d="M81.4988428,68.2518737 L81.4988428,57.0096121 L86.1607363,57.0096121 L86.1607363,53.2877712 L73,53.2877712 L73,57.0096121 L77.6618935,57.0096121 L77.6618935,68.2518737 L81.4988428,68.2518737 Z M96.4220243,68.5396449 C100.796147,68.5396449 104.364509,65.048021 104.364509,60.7698225 C104.364509,56.4916239 100.796147,53 96.4220243,53 C92.1054563,53 88.4795391,56.4916239 88.4795391,60.7698225 C88.4795391,65.048021 92.1054563,68.5396449 96.4220243,68.5396449 Z M96.4220243,64.8369888 C94.1774089,64.8369888 92.354858,63.0336226 92.354858,60.7698225 C92.354858,58.5060223 94.1774089,56.7026561 96.4220243,56.7026561 C98.7241939,56.7026561 100.489191,58.5060223 100.489191,60.7698225 C100.489191,63.0336226 98.7241939,64.8369888 96.4220243,64.8369888 Z M115.143786,68.5396449 C119.517908,68.5396449 123.086271,65.048021 123.086271,60.7698225 C123.086271,56.4916239 119.517908,53 115.143786,53 C110.827218,53 107.2013,56.4916239 107.2013,60.7698225 C107.2013,65.048021 110.827218,68.5396449 115.143786,68.5396449 Z M115.143786,64.8369888 C112.89917,64.8369888 111.076619,63.0336226 111.076619,60.7698225 C111.076619,58.5060223 112.89917,56.7026561 115.143786,56.7026561 C117.445955,56.7026561 119.210952,58.5060223 119.210952,60.7698225 C119.210952,63.0336226 117.445955,64.8369888 115.143786,64.8369888 Z M137.625757,68.2518737 L137.625757,64.5492176 L130.450662,64.5492176 L130.450662,53.2877712 L126.632897,53.2877712 L126.632897,68.2518737 L137.625757,68.2518737 Z M146.73596,68.5396449 C150.150845,68.5396449 152.683232,67.0048652 152.683232,64.0887837 C152.683232,60.808192 149.153239,59.5803682 147.081286,58.8513478 C145.297104,58.2374359 144.606454,57.9304799 144.606454,57.3357528 C144.606454,56.8369494 145.124442,56.3189612 146.429005,56.3189612 C147.982969,56.3189612 148.731174,57.1822748 148.731174,57.9112952 L148.731174,58.0455884 L152.4722,58.0455884 L152.4722,57.8345562 C152.4722,54.8609204 149.843889,53 146.352266,53 C142.937381,53 140.500918,54.7841815 140.500918,57.6427087 C140.500918,60.731453 143.628032,61.8825378 146.00694,62.6691124 C147.810306,63.2830243 148.558511,63.6667192 148.558511,64.2998159 C148.558511,64.7410651 148.098078,65.2206837 146.659221,65.2206837 C144.91341,65.2206837 144.126835,64.4341091 144.126835,63.8585667 L144.126835,63.762643 L140.385809,63.762643 L140.385809,63.9353057 C140.385809,66.8705719 143.148413,68.5396449 146.73596,68.5396449 Z" id="Tools" fill="#050713" fill-rule="nonzero"></path>
    </g>
</svg>

<svg xmlns="http://www.w3.org/2000/svg" viewBox="0 0 215 105"><g fill="none" fill-rule="evenodd"><path fill="#FFF" d="M0 0h215v105H0z"/><g fill="#184AE8"><path d="M42.04 80.315c0 .253-.025.501-.063.744l-.014.091a4.866 4.866 0 0 1-4.785 4.027 4.868 4.868 0 0 1-4.602-3.306l-20.23-11.679a6.483 6.483 0 0 1-3.241-5.614V44.907c.749.253 1.548.397 2.383.397.75 0 1.472-.113 2.155-.32v19.594c0 .692.372 1.337.973 1.683l18.871 10.896a4.85 4.85 0 0 1 3.691-1.705c1.606 0 3.028.785 3.915 1.99l.048.064c.062.088.12.178.177.27l.065.107a4.807 4.807 0 0 1 .316.653c.024.06.045.12.067.181.027.077.053.155.076.233.023.075.04.15.058.225.017.07.035.14.049.212.019.095.03.19.044.285.007.058.018.113.024.17.014.156.023.313.023.473Zm24.88-42.466a4.844 4.844 0 0 1-1.67 3.657v23.072a6.482 6.482 0 0 1-3.24 5.614L44.63 80.226a7.409 7.409 0 0 0-1.496-4.377l16.607-9.588c.6-.346.972-.99.972-1.683v-22.06a4.867 4.867 0 0 1-3.518-4.67 4.826 4.826 0 0 1 .982-2.917c.112-.149.233-.293.362-.428l.017-.019c.267-.278.565-.522.89-.73l.104-.064c.129-.077.26-.15.396-.215.04-.019.08-.04.12-.057.17-.077.345-.148.525-.204a4.84 4.84 0 0 1 1.467-.228 4.867 4.867 0 0 1 4.862 4.863ZM9.105 42.083a4.864 4.864 0 0 1-2.48-4.234 4.868 4.868 0 0 1 4.863-4.863c.695 0 1.355.15 1.954.414l20.494-11.833a6.478 6.478 0 0 1 6.483 0l17.483 10.094a7.488 7.488 0 0 0-2.83 3.605L38.15 25.497a1.944 1.944 0 0 0-1.945 0L16.272 37.006c.049.274.078.554.078.843a4.866 4.866 0 0 1-3.188 4.559l-.043.016a5.153 5.153 0 0 1-.45.136c-.03.008-.06.017-.091.023-.14.032-.283.058-.427.078-.04.005-.078.013-.118.017-.179.02-.36.033-.545.033-.198 0-.393-.015-.586-.039-.051-.006-.102-.015-.153-.023a4.7 4.7 0 0 1-.437-.087l-.132-.034a4.875 4.875 0 0 1-1.075-.445Z"/><path d="m47.5 35.07-.03 1.91c-.005.22-.152 4.936-5.746 9.863h6.8a6.163 6.163 0 0 1 6.156 6.156 6.163 6.163 0 0 1-6.156 6.156h-.319l-1.775 1.778c-.216.216-.505.33-.82.314l-2.177-.12-1.535 1.54c-.217.218-.503.332-.824.315l-2.17-.12-1.535 1.54c-.217.217-.514.33-.823.315l-2.168-.123-1.535 1.54a1.077 1.077 0 0 1-.822.315l-2.653-.148a1.076 1.076 0 1 1 .12-2.15l2.17.121 1.536-1.54c.216-.218.521-.33.823-.315l2.168.122L37.72 61a1.07 1.07 0 0 1 .824-.315l2.17.121 1.536-1.54c.041-.042.088-.077.134-.111H25.312a6.163 6.163 0 0 1-6.155-6.156 6.163 6.163 0 0 1 6.155-6.156h2.035l-.005-.007L47.5 35.07Zm1.024 13.926H25.312a4.007 4.007 0 0 0-4.002 4.003 4.007 4.007 0 0 0 4.002 4.003h23.212a4.007 4.007 0 0 0 4.003-4.003 4.007 4.007 0 0 0-4.003-4.003Zm.355 1.547v1.495h1.496v2.153h-1.496v1.496h-2.153V54.19h-1.495v-2.153h1.495v-1.495h2.153Zm-4.094-11.395-13.184 7.695h6.839l-.064-.088c3.993-2.854 5.689-5.715 6.41-7.607Z"/></g><path fill="#6D7A99" fill-rule="nonzero" d="M78.565 38.821h2.079v.242a2.208 2.208 0 0 1-1.837.979 2.32 2.32 0 0 1-2.332-2.332 2.32 2.32 0 0 1 2.332-2.332c.748 0 1.408.341 1.837.88l1.793-1.21a4.591 4.591 0 0 0-3.63-1.793c-2.486 0-4.554 2.002-4.554 4.455 0 2.453 2.068 4.455 4.554 4.455.88 0 1.749-.33 2.167-.968V42h1.727v-5.005h-4.136v1.826Zm7.746-5.401V42H88.5v-2.299h1.122L91.25 42h2.629l-1.86-2.596c1.156-.528 1.695-1.65 1.695-2.849 0-1.705-1.012-3.135-3.212-3.135H86.31Zm4.07 2.002c.88 0 1.21.495 1.21 1.155 0 .594-.33 1.133-1.21 1.133H88.5v-2.288h1.88Zm9.505-2.002L96.41 42h2.398l.473-1.254h3.377l.473 1.254h2.398l-3.465-8.58h-2.178Zm2.024 5.335h-1.88l.945-2.519.935 2.519ZM108.688 42h2.2v-1.947h1.584c2.277 0 3.366-1.529 3.366-3.344 0-1.727-1.09-3.289-3.366-3.289h-3.784V42Zm3.663-6.578c.924 0 1.265.616 1.265 1.298 0 .759-.341 1.331-1.265 1.331h-1.463v-2.629h1.463Zm12.52-2.002v3.333h-3.499V33.42h-2.189V42h2.19v-3.19h3.497V42h2.2v-8.58h-2.2Zm5.61 4.29c0 2.2 1.673 4.048 3.807 4.389 1.485.495 2.486 2.035 4.213 2.035.78 0 1.782-.319 2.398-1.166l-1.661-1.342c-.231.352-.627.385-.748.385-.374 0-.726-.198-1.122-.473 1.33-.781 2.222-2.2 2.222-3.828 0-2.453-2.046-4.455-4.554-4.455-2.475 0-4.554 2.002-4.554 4.455Zm2.223 0a2.326 2.326 0 0 1 2.332-2.332 2.306 2.306 0 0 1 2.332 2.332 2.306 2.306 0 0 1-2.332 2.332 2.326 2.326 0 0 1-2.332-2.332ZM143.012 42v-8.58h2.19v6.457h4.113V42h-6.303Z"/><path fill="#050713" fill-rule="nonzero" d="M81.499 68.252V57.01h4.662v-3.722H73v3.722h4.662v11.242h3.837Zm14.923.288c4.374 0 7.943-3.492 7.943-7.77S100.796 53 96.422 53c-4.317 0-7.942 3.492-7.942 7.77s3.625 7.77 7.942 7.77Zm0-3.703a4.057 4.057 0 0 1-4.067-4.067 4.057 4.057 0 0 1 4.067-4.067c2.302 0 4.067 1.803 4.067 4.067 0 2.264-1.765 4.067-4.067 4.067Zm18.722 3.703c4.374 0 7.942-3.492 7.942-7.77S119.518 53 115.144 53c-4.317 0-7.943 3.492-7.943 7.77s3.626 7.77 7.943 7.77Zm0-3.703a4.057 4.057 0 0 1-4.067-4.067 4.057 4.057 0 0 1 4.067-4.067c2.302 0 4.067 1.803 4.067 4.067 0 2.264-1.765 4.067-4.067 4.067Zm22.482 3.415v-3.703h-7.175V53.288h-3.818v14.964h10.993Zm9.11.288c3.415 0 5.947-1.535 5.947-4.451 0-3.28-3.53-4.509-5.602-5.238-1.784-.614-2.475-.92-2.475-1.515 0-.5.518-1.017 1.823-1.017 1.554 0 2.302.863 2.302 1.592v.135h3.741v-.211c0-2.974-2.628-4.835-6.12-4.835-3.415 0-5.851 1.784-5.851 4.643 0 3.088 3.127 4.24 5.506 5.026 1.803.614 2.552.998 2.552 1.63 0 .442-.46.922-1.9.922-1.746 0-2.532-.787-2.532-1.362v-.096h-3.741v.172c0 2.936 2.762 4.605 6.35 4.605Z"/></g></svg>
